X: 69
M: C|
L: 1/8
K: Am
edcB |\
|: gfed |\
c2 (3(c'ba) g2(Ta3/g//a//) | {a2}g4 agfe | d2c2 Bdce | d2G2 gfed |\
c2 (3(c'ba) g2(Ta3/g//a//) | {a2}g4 agfe | d2c2 {e}d2cB | c4 edef |
e4 dcde | d4 c2BA | ^G2f2 dcBA | ^G2E2 edcB |\


